image/youtube.svg

<svg width="16" height="16" viewBox="0 0 16 16" fill="none" xmlns="http://www.w3.org/2000/svg">
<path d="M3.52305 0.498047H4.43886L5.06743 2.85309L5.65028 0.498809H6.57524L5.51619 3.99976V6.38986H4.60571V4.00052L3.52305 0.498047ZM7.71809 2.00814C7.00648 2.00814 6.53409 2.479 6.53409 3.17538V5.30567C6.53409 6.07214 6.93409 6.47138 7.71809 6.47138C8.368 6.47138 8.88 6.03633 8.88 5.30567V3.17538C8.88 2.495 8.37257 2.00814 7.71809 2.00814ZM8.05562 5.26909C8.05562 5.50605 7.93524 5.68052 7.71733 5.68052C7.49409 5.68052 7.36533 5.49767 7.36533 5.26909V3.24776C7.36533 3.01005 7.47428 2.83405 7.70133 2.83405C7.94971 2.83405 8.05562 3.00471 8.05562 3.24776V5.27062V5.26909ZM11.0651 2.04395V5.343C10.9661 5.46719 10.7467 5.66909 10.589 5.66909C10.4168 5.66909 10.3741 5.551 10.3741 5.37652V2.04395H9.56647V5.67671C9.56647 6.10643 9.69752 6.45309 10.1303 6.45309C10.3749 6.45309 10.7147 6.32586 11.0644 5.91062V6.39062H11.872V2.04319H11.0644L11.0651 2.04395ZM12.4663 10.8607C12.1813 10.8607 12.1219 11.0611 12.1219 11.346V11.7651H12.8023V11.3453C12.8023 11.0657 12.7436 10.8607 12.4663 10.8607ZM9.47429 10.8859C9.41406 10.9182 9.35992 10.9607 9.31429 11.0116V13.5914C9.36624 13.6504 9.42812 13.6999 9.49714 13.7377C9.62286 13.8009 9.80571 13.8055 9.89105 13.695C9.936 13.6363 9.95809 13.5411 9.95809 13.4093V11.2721C9.95809 11.132 9.93067 11.0268 9.87581 10.9537C9.78286 10.8318 9.60914 10.818 9.47429 10.8859ZM12.5448 7.58071C10.8884 7.46871 5.50476 7.46871 3.85143 7.58071C2.06095 7.70262 1.84914 8.78452 1.83619 11.6318C1.84914 14.4737 2.05867 15.5601 3.85067 15.682C5.50476 15.7948 10.8884 15.7948 12.5448 15.682C14.3352 15.5601 14.5463 14.4782 14.56 11.6318C14.5463 8.78986 14.3368 7.70338 12.5448 7.58071ZM4.70476 14.3792H3.83771V9.58224H2.94019V8.76776H5.60076V9.583H4.704V14.3792H4.70476ZM7.78743 14.3792H7.0179V13.922C6.87619 14.0912 6.72838 14.2192 6.57524 14.3076C6.16 14.5453 5.59086 14.54 5.59086 13.6996V10.2405H6.36038V13.4139C6.36038 13.58 6.4 13.692 6.56457 13.692C6.71467 13.692 6.92343 13.4992 7.01714 13.3826V10.2398H7.78667V14.3784L7.78743 14.3792ZM10.7505 13.522C10.7505 14.034 10.5585 14.4318 10.0465 14.4318C9.76457 14.4318 9.5299 14.3289 9.31505 14.0615V14.3792H8.53867V8.76776H9.31581V10.575C9.48952 10.3632 9.72495 10.188 10 10.188C10.5638 10.188 10.7512 10.6649 10.7512 11.2257V13.522H10.7505ZM13.5947 12.4074H12.1227V13.1883C12.1227 13.4992 12.1493 13.7674 12.4579 13.7674C12.7832 13.7674 12.8023 13.5487 12.8023 13.1883V12.9011H13.5947V13.212C13.5947 14.0089 13.2518 14.492 12.4411 14.492C11.7067 14.492 11.3303 13.9571 11.3303 13.212V11.3521C11.3303 10.6344 11.805 10.1354 12.499 10.1354C13.2381 10.1354 13.5939 10.6047 13.5939 11.3529V12.4066L13.5947 12.4074Z" fill="black"/>
</svg>

<svg xmlns="http://www.w3.org/2000/svg" width="16" height="16" fill="none"><path fill="#000" d="M3.523.498h.916l.628 2.355L5.65.5h.925l-1.059 3.5v2.39h-.91V4.002L3.523.498Zm4.195 1.51c-.712 0-1.184.471-1.184 1.167v2.13c0 .767.4 1.166 1.184 1.166.65 0 1.162-.435 1.162-1.165v-2.13c0-.681-.507-1.168-1.162-1.168Zm.338 3.261c0 .237-.12.412-.339.412-.223 0-.352-.183-.352-.412V3.248c0-.238.11-.414.336-.414.249 0 .355.17.355.414V5.27v-.002Zm3.01-3.225v3.299c-.1.124-.32.326-.477.326-.172 0-.215-.118-.215-.292V2.044h-.808v3.633c0 .43.132.776.564.776.245 0 .585-.127.934-.542v.48h.808V2.043h-.808l.001.001Zm1.4 8.817c-.285 0-.344.2-.344.485v.42h.68v-.42c0-.28-.058-.485-.336-.485Zm-2.992.025a.588.588 0 0 0-.16.126v2.58a.677.677 0 0 0 .183.146c.126.063.309.068.394-.043.045-.059.067-.154.067-.286v-2.137a.522.522 0 0 0-.082-.318c-.093-.122-.267-.136-.402-.068Zm3.07-3.305c-1.656-.112-7.04-.112-8.693 0-1.79.122-2.002 1.204-2.015 4.05.013 2.843.223 3.93 2.015 4.051 1.654.113 7.037.113 8.694 0 1.79-.122 2.001-1.204 2.015-4.05-.014-2.842-.223-3.929-2.015-4.051Zm-7.84 6.798h-.866V9.582H2.94v-.814H5.6v.815h-.896v4.796Zm3.083 0h-.77v-.457c-.14.17-.289.297-.442.386-.415.237-.984.232-.984-.608v-3.46h.77v3.174c0 .166.039.278.204.278.15 0 .358-.193.452-.31V10.24h.77v4.139Zm2.964-.857c0 .512-.192.91-.704.91-.282 0-.517-.103-.732-.37v.317H8.54V8.768h.777v1.807c.174-.212.409-.387.684-.387.564 0 .751.477.751 1.038v2.296Zm2.844-1.115h-1.472v.781c0 .311.026.58.335.58.325 0 .344-.22.344-.58v-.287h.793v.311c0 .797-.343 1.28-1.154 1.28-.734 0-1.11-.535-1.11-1.28v-1.86c0-.718.474-1.217 1.168-1.217.74 0 1.095.47 1.095 1.218v1.054Z"/></svg>
